F1 Grump/assets/track outlines/Barcelona-Catalunya - White_1.svg

<svg width="4159" height="1240" viewBox="0 0 4159 1240" fill="none" xmlns="http://www.w3.org/2000/svg">
<path d="M856.649 1239.63C820.429 1239.79 787.719 1239.89 758.919 1239.93C705.169 1240 649.749 1207.18 627.139 1161.93C613.779 1135.21 612.319 1098.32 610.789 1059.26C609.139 1017.26 607.259 969.74 589.959 944.54C551.379 888.37 505.669 872.74 452.759 854.65C433.699 848.12 413.999 841.38 393.919 832.51C383.209 827.77 372.609 823.18 362.109 818.64C252.549 771.21 149.049 726.41 97.1089 589.24C59.1089 488.94 62.1089 405.45 107.109 310.05C143.899 232.11 219.999 152.54 310.689 97.2C395.059 45.72 512.189 9.27996 602.119 6.50996C712.429 3.10996 1220.91 -2.23004 1349.12 0.999958C1388.12 1.99996 1430.53 24.64 1465.59 63.2C1507.13 108.85 1529.65 166.14 1525.84 216.44C1516.03 346.09 1367.59 474.93 1257.48 485.57C1127.85 498.07 993.109 498.03 850.479 498.02C797.979 498.02 743.879 498.02 687.729 498.6C658.419 498.9 612.029 510.27 604.339 540.31C594.629 578.31 616.339 620.83 642.739 636.79C668.739 652.51 700.969 673.97 738.329 698.79C858.049 778.42 1038.96 898.79 1156.26 917.24C1297.02 939.39 1455.26 942.24 1532.68 933.65C1563.79 930.2 1611.09 902.87 1615.94 888.8C1624.79 863.12 1624.35 821.21 1623.94 784.24C1623.53 744.24 1623.17 709.6 1632.5 684.17C1650.34 635.46 1693.06 572.8 1738.29 506.47C1749.79 489.63 1761.52 472.47 1773.1 455.09C1863.73 319.43 1942.77 202.02 1992.22 139.09C2030.89 90 2140.16 53 2195 52C2250.38 50.76 2324.31 70.6 2375.61 99.69C2486.32 162.49 2692.89 283.98 2911.61 412.61C3185.42 573.61 3468.55 740.17 3610.48 819.27C3613.05 820.69 3622.31 819.91 3631.64 813.27C3639.64 807.62 3642.39 801.41 3642.06 799.5C3631.39 740.5 3570.65 572.76 3529.49 488.35C3519.73 479.64 3478.76 468.81 3454.06 462.27C3409.74 450.55 3371.47 440.41 3351.06 419.11C3320.47 387.19 3239.27 302.46 3300.57 176.11C3337.49 100.11 3414.99 21.21 3574.88 77.5C3639.61 100.31 3697.04 119.21 3752.57 137.5C3822.57 160.56 3894.98 184.4 3982.48 216.15C4024.18 231.29 4024.4 285.58 4007.35 493.01C4003.21 543.51 3999.28 591.29 3999.35 618.89C4007.35 623.89 4031.06 627.89 4044.23 630.04C4076.44 635.42 4125.12 643.52 4125.48 687.78C4125.69 714.39 4126.65 742.3 4127.59 769.28C4131.13 871.58 4134.46 968.18 4102.65 1034.76C4067.22 1108.88 3969.23 1213.38 3862.28 1213.86C3850.18 1213.73 3836.92 1213.94 3823.35 1213.99C3538.12 1215.23 2985.86 1220.62 2402.73 1226.31C1803.46 1232.16 1185.73 1238.18 856.809 1239.6M604.279 75.92C526.669 78.3 420.969 111.39 347.279 156.38C268.929 204.19 201.159 274.38 170.429 339.51C139.429 405.28 126.209 468.76 162.569 564.77C203.999 674.45 286.099 710 389.999 755C400.649 759.61 411.409 764.27 422.299 769.08C439.599 776.69 456.999 782.66 475.499 789C531.999 808.28 595.999 830.18 647.649 905.35C676.289 947.05 678.559 1005.2 680.589 1056.52C681.719 1085.15 682.989 1117.6 689.699 1131C700.409 1152.45 732.069 1170.53 758.839 1170.49C1049.03 1170.1 1736.78 1163.4 2401.84 1156.9C3012.7 1150.9 3589.48 1145.3 3861.64 1144.45H3861.75C3933.34 1144.14 4012.18 1061.82 4039.35 1005C4063.84 953.7 4060.65 861.18 4057.56 771.71C4056.78 749.06 4055.97 725.78 4055.56 702.86C4048.64 701.25 4039.37 699.71 4032.41 698.55C3994.05 692.16 3929.82 681.46 3929.26 622C3928.96 591.67 3932.93 543.35 3937.53 487.4C3943.03 420.48 3951.95 312.06 3946.16 277.03C3865.04 247.79 3796.64 225.26 3730.4 203.44C3674.6 185 3616.82 166 3551.45 143C3458.5 110.28 3400.51 129.82 3363.37 206.34C3329.92 275.23 3354.42 322.06 3401.51 371.19C3409.6 378.67 3448.64 389 3471.97 395.19C3527.12 409.79 3574.76 422.4 3591.42 456.34C3635.42 545.98 3698.98 722.25 3710.73 787.22C3716.2 817.43 3701.38 849.1 3672.09 869.85C3641.65 891.41 3604.09 895.31 3576.26 879.85C3433.59 800.35 3150.12 633.61 2875.96 472.38C2657.51 343.82 2451.17 222.47 2341 160C2300.18 136.85 2239.52 121 2196.31 121.42C2154.76 122.2 2069.15 154.21 2047.31 181.95C1995.5 247.85 1900.62 389.88 1831.31 493.58C1819.61 511.11 1807.77 528.49 1796.15 545.52C1753.42 608.19 1713.06 667.37 1698.15 708.02C1693.15 721.6 1693.51 754.55 1693.8 783.62C1694.24 826.18 1694.74 874.43 1681.99 911.38C1663.99 963.75 1581.49 998.18 1540.41 1002.75C1458.41 1011.82 1292.11 1009 1145.28 985.9C1012.88 965 831.739 844.51 699.479 756.53C662.779 732.13 631.119 711.05 606.419 696.11C551.049 662.61 520.419 586.66 536.649 523.19C553.039 459.19 623.969 429.83 686.989 429.19C743.389 428.57 797.749 428.6 850.509 428.61C991.369 428.61 1124.51 428.66 1250.73 416.49C1322.8 409.49 1448.65 310.73 1456.19 211.27C1458.51 180.5 1441.89 140.67 1413.8 109.81C1392.16 86.02 1366.69 70.95 1347.33 70.46C1219.98 67.23 714.119 72.58 604.329 75.95" fill="white"/>
</svg>

<svg xmlns="http://www.w3.org/2000/svg" viewBox="0 0 4159.32 1896.56"><defs><style>.cls-1{fill:#fff;}</style></defs><title>Barcelona-Catalunya - White_1</title><g id="Layer_2" data-name="Layer 2"><g id="Layer_1-2" data-name="Layer 1"><path class="cls-1" d="M0,1622.78H97.89q40.17,0,60.26,16.57t20.08,52.07q0,25.35-8.77,39.58t-25.94,22.43q42.9,14.82,42.9,63.57,0,40.56-21.45,58.11t-62,17.55H0Zm96.72,26.52H30v93.21H99.45q25,0,36.47-11.9t11.5-35.88q0-24-12.28-34.71T96.72,1649.3Zm3.12,119.34H30v97.5h71.76q26.52,0,40.37-11.12T156,1815.83q0-14.82-5.65-25t-15-14.43A84.87,84.87,0,0,0,99.84,1768.64Z"/><path class="cls-1" d="M212.55,1892.66l74.1-269.88h65.52l74.1,269.88H396.63l-19.5-69.42H261.69l-19.5,69.42Zm96.72-244.14-40.95,147.81H370.5l-40.95-147.81Z"/><path class="cls-1" d="M498.81,1789.31v103.35h-30V1622.78h99.84q42.9,0,64.54,19.89t21.65,62q0,62.4-49.53,78.39l51.87,109.59H624l-48.75-103.35Zm70.2-26.52q55,0,55-56.75t-55.38-56.74H498.81v113.49Z"/><path class="cls-1" d="M872,1888.37q-40.17,8.19-72.15,8.19t-51.68-8.78a64.71,64.71,0,0,1-30.42-27.3Q707.07,1842,703,1818t-4.09-59.86q0-35.88,4.09-60.26t14.82-43.09a63.51,63.51,0,0,1,30.23-27.3q19.5-8.58,50.7-8.58t73.32,8.58l-1.17,25.35q-39.4-7-70.2-7-42.92,0-56.75,25.54t-13.84,87.17q0,30.81,2.53,49.53a108.56,108.56,0,0,0,9.95,33.73q7.4,15,21.64,21.45t41.73,6.44q27.5,0,64.94-7Z"/><path class="cls-1" d="M921.17,1892.66V1622.78h164.19v26.52H951.2v93.21H1062v26.13H951.2v97.5h134.16v26.52Z"/><path class="cls-1" d="M1285.43,1892.66H1136.84V1622.78h30v243h118.56Z"/><path class="cls-1" d="M1518.26,1759.67q0,72.15-23,104.52t-83.65,32.37q-60.64,0-83.66-33.15t-23-104.33q0-71.16,23.4-105.69t83.07-34.51q59.67,0,83.27,34.32T1518.26,1759.67Zm-182.52-.78q0,59.28,15.6,85.21T1411.6,1870q44.65,0,60.06-25.35t15.4-85q0-59.67-16-87t-59.86-27.3q-43.87,0-59.67,27.1T1335.74,1758.89Z"/><path class="cls-1" d="M1573.25,1892.66V1622.78h56.16l103.35,243.36H1741V1622.78h29.64v269.88h-55L1610.69,1649.3h-7.41v243.36Z"/><path class="cls-1" d="M1813.1,1892.66l74.1-269.88h65.52l74.1,269.88h-29.64l-19.5-69.42H1862.24l-19.5,69.42Zm96.72-244.14-41,147.81h102.18l-41-147.81Z"/><path class="cls-1" d="M2058.79,1799.06v-27.3H2177v27.3Z"/><path class="cls-1" d="M2399.26,1888.37q-40.17,8.19-72.15,8.19t-51.67-8.78a64.62,64.62,0,0,1-30.42-27.3Q2234.28,1842,2230.2,1818t-4.1-59.86q0-35.88,4.1-60.26t14.82-43.09a63.49,63.49,0,0,1,30.22-27.3q19.5-8.58,50.7-8.58t73.32,8.58l-1.17,25.35q-39.39-7-70.2-7-42.9,0-56.74,25.54t-13.85,87.17q0,30.81,2.54,49.53a108.29,108.29,0,0,0,9.94,33.73q7.41,15,21.65,21.45t41.73,6.44q27.49,0,64.93-7Z"/><path class="cls-1" d="M2424.61,1892.66l74.1-269.88h65.52l74.1,269.88h-29.64l-19.5-69.42H2473.75l-19.5,69.42Zm96.72-244.14-40.95,147.81h102.18l-40.95-147.81Z"/><path class="cls-1" d="M2634.43,1649.69v-26.91h195v26.91h-82.29v243H2717.5v-243Z"/><path class="cls-1" d="M2825.52,1892.66l74.1-269.88h65.52l74.1,269.88H3009.6l-19.5-69.42H2874.66l-19.5,69.42Zm96.72-244.14-40.95,147.81h102.18l-40.95-147.81Z"/><path class="cls-1" d="M3230.34,1892.66H3081.75V1622.78h30v243h118.56Z"/><path class="cls-1" d="M3291.57,1811.54q0,58.5,63.18,58.5,32.76,0,49.34-13.85t16.57-44.65V1622.78h29.64v188q0,45.24-24,65.52t-70.79,20.28q-46.8,0-70.4-20.28t-23.59-65.52v-188h30Z"/><path class="cls-1" d="M3514.65,1892.66V1622.78h56.16l103.35,243.36h8.19V1622.78H3712v269.88h-55L3552.09,1649.3h-7.41v243.36Z"/><path class="cls-1" d="M3865.26,1892.66h-30V1779.17L3749,1622.78H3783l67.08,126.36,67.08-126.36h33.93l-85.8,156.39Z"/><path class="cls-1" d="M3945.6,1892.66l74.1-269.88h65.52l74.1,269.88h-29.64l-19.5-69.42H3994.74l-19.5,69.42Zm96.72-244.14-41,147.81h102.18l-41-147.81Z"/><path class="cls-1" d="M856.65,1239.63c-36.22.16-68.93.26-97.73.3-53.75.07-109.17-32.75-131.78-78-13.36-26.72-14.82-63.61-16.35-102.67-1.65-42-3.53-89.52-20.83-114.72-38.58-56.17-84.29-71.8-137.2-89.89-19.06-6.53-38.76-13.27-58.84-22.14-10.71-4.74-21.31-9.33-31.81-13.87-109.56-47.43-213.06-92.23-265-229.4-38-100.3-35-183.79,10-279.19C143.9,232.11,220,152.54,310.69,97.2,395.06,45.72,512.19,9.28,602.12,6.51c110.31-3.4,618.79-8.74,747-5.51,39,1,81.41,23.64,116.47,62.2,41.54,45.65,64.06,102.94,60.25,153.24-9.81,129.65-158.25,258.49-268.36,269.13-129.63,12.5-264.37,12.46-407,12.45-52.5,0-106.6,0-162.75.58-29.31.3-75.7,11.67-83.39,41.71-9.71,38,12,80.52,38.4,96.48,26,15.72,58.23,37.18,95.59,62,119.72,79.63,300.63,200,417.93,218.45,140.76,22.15,299,25,376.42,16.41,31.11-3.45,78.41-30.78,83.26-44.85,8.85-25.68,8.41-67.59,8-104.56-.41-40-.77-74.64,8.56-100.07,17.84-48.71,60.56-111.37,105.79-177.7,11.5-16.84,23.23-34,34.81-51.38,90.63-135.66,169.67-253.07,219.12-316C2030.89,90,2140.16,53,2195,52c55.38-1.24,129.31,18.6,180.61,47.69,110.71,62.8,317.28,184.29,536,312.92,273.81,161,556.94,327.56,698.87,406.66,2.57,1.42,11.83.64,21.16-6,8-5.65,10.75-11.86,10.42-13.77-10.67-59-71.41-226.74-112.57-311.15-9.76-8.71-50.73-19.54-75.43-26.08-44.32-11.72-82.59-21.86-103-43.16-30.59-31.92-111.79-116.65-50.49-243,36.92-76,114.42-154.9,274.31-98.61,64.73,22.81,122.16,41.71,177.69,60,70,23.06,142.41,46.9,229.91,78.65,41.7,15.14,41.92,69.43,24.87,276.86-4.14,50.5-8.07,98.28-8,125.88,8,5,31.71,9,44.88,11.15,32.21,5.38,80.89,13.48,81.25,57.74.21,26.61,1.17,54.52,2.11,81.5,3.54,102.3,6.87,198.9-24.94,265.48-35.43,74.12-133.42,178.62-240.37,179.1-12.1-.13-25.36.08-38.93.13-285.23,1.24-837.49,6.63-1420.62,12.32-599.27,5.85-1217,11.87-1545.92,13.29M604.28,75.92h0c-77.61,2.38-183.31,35.47-257,80.46-78.35,47.81-146.12,118-176.85,183.13-31,65.77-44.22,129.25-7.86,225.26C204,674.45,286.1,710,390,755c10.65,4.61,21.41,9.27,32.3,14.08C439.6,776.69,457,782.66,475.5,789,532,808.28,596,830.18,647.65,905.35c28.64,41.7,30.91,99.85,32.94,151.17,1.13,28.63,2.4,61.08,9.11,74.48,10.71,21.45,42.37,39.53,69.14,39.49,290.19-.39,977.94-7.09,1643-13.59,610.86-6,1187.64-11.6,1459.8-12.45h.11c71.59-.31,150.43-82.63,177.6-139.45,24.49-51.3,21.3-143.82,18.21-233.29-.78-22.65-1.59-45.93-2-68.85-6.92-1.61-16.19-3.15-23.15-4.31-38.36-6.39-102.59-17.09-103.15-76.55-.3-30.33,3.67-78.65,8.27-134.6,5.5-66.92,14.42-175.34,8.63-210.37-81.12-29.24-149.52-51.77-215.76-73.59C3674.6,185,3616.82,166,3551.45,143c-92.95-32.72-150.94-13.18-188.08,63.34-33.45,68.89-8.95,115.72,38.14,164.85,8.09,7.48,47.13,17.81,70.46,24,55.15,14.6,102.79,27.21,119.45,61.15,44,89.64,107.56,265.91,119.31,330.88,5.47,30.21-9.35,61.88-38.64,82.63-30.44,21.56-68,25.46-95.83,10-142.67-79.5-426.14-246.24-700.3-407.47C2657.51,343.82,2451.17,222.47,2341,160c-40.82-23.15-101.48-39-144.69-38.58-41.55.78-127.16,32.79-149,60.53-51.81,65.9-146.69,207.93-216,311.63-11.7,17.53-23.54,34.91-35.16,51.94-42.73,62.67-83.09,121.85-98,162.5-5,13.58-4.64,46.53-4.35,75.6.44,42.56.94,90.81-11.81,127.76-18,52.37-100.5,86.8-141.58,91.37-82,9.07-248.3,6.25-395.13-16.85C1012.88,965,831.74,844.51,699.48,756.53c-36.7-24.4-68.36-45.48-93.06-60.42-55.37-33.5-86-109.45-69.77-172.92,16.39-64,87.32-93.36,150.34-94,56.4-.62,110.76-.59,163.52-.58,140.86,0,274,.05,400.22-12.12,72.07-7,197.92-105.76,205.46-205.22,2.32-30.77-14.3-70.6-42.39-101.46-21.64-23.79-47.11-38.86-66.47-39.35-127.35-3.23-633.21,2.12-743,5.49"/></g></g></svg>
